src/icons/svg/togroup.svg

<?xml version="1.0" encoding="UTF-8"?>
<svg width="14px" height="14px" viewBox="0 0 14 14" version="1.1" xmlns="http://www.w3.org/2000/svg" xmlns:xlink="http://www.w3.org/1999/xlink">
    <!-- Generator: Sketch 63 (92445) - https://sketch.com -->
    <title>分配至组</title>
    <desc>Created with Sketch.</desc>
    <g id="图标页面" stroke="none" stroke-width="1" fill="none" fill-rule="evenodd">
        <g id="画板" transform="translate(-110.000000, -42.000000)" fill="#333333">
            <g id="分配至组" transform="translate(101.000000, 33.000000)">
                <g id="编组-2" transform="translate(9.000000, 9.000000)">
                    <g id="分配至组">
                        <path d="M11.7142857,14 L2.21428572,14 C1,14 0,12.88 0,11.52 L0,2.48 C0,1.12 1,0 2.21428572,0 L4.07142858,0 C4.64285715,0 4.92857144,0.719999998 5.21428572,1.52 C5.28571429,1.76000001 5.42857144,2.08 5.57142858,2.32000001 C5.64285715,2.40000001 5.71428572,2.40000001 5.78571428,2.4 L11.7857143,2.4 C13,2.4 14,3.52 14,4.88 L14,11.6 C13.9285714,12.88 12.9285714,14 11.7142857,14 Z M2.08643269,1.16666667 C1.42640126,1.16666667 0.913043478,1.7260274 0.913043478,2.44520548 L0.913043478,11.5547945 C0.913043478,12.2739726 1.42640126,12.8333333 2.08643269,12.8333333 L11.9135673,12.8333333 C12.5735987,12.8333333 13.0869565,12.2739726 13.0869565,11.5547945 L13.0869565,4.84246575 C13.0869565,4.12328767 12.5735987,3.56392694 11.9135673,3.56392694 L5.53326349,3.56392694 C4.94656888,3.56392694 4.1398638,1.88584475 3.91985332,1.32648402 C3.84651649,1.24657533 3.77317967,1.16666667 3.62650602,1.16666667 L2.08643269,1.16666667 Z" id="形状" fill-rule="nonzero"></path>
                        <path d="M5.22282867,7.2878849 L9.68094957,7.2878849 C9.85716697,7.28792573 10,7.44732617 10,7.64394245 C10,7.84055873 9.85716697,7.99995917 9.68094957,8 L4.29419907,8 C4.24904569,7.99976665 4.20445075,7.98884433 4.16336122,7.96795482 L4.13464072,7.94659136 C4.10592534,7.92747769 4.08008069,7.90344734 4.05805271,7.87537985 C4.05197063,7.86272863 4.04664053,7.84964498 4.04209688,7.83621352 C4.01818205,7.79578256 4.00390372,7.74921448 4.0006117,7.70091165 C3.9997961,7.68668388 3.9997961,7.67241251 4.0006117,7.65818474 L4.0006117,7.63682129 C4.00983784,7.54429179 4.04830339,7.45845518 4.10911138,7.39470216 L5.57066586,6.07372864 C5.66130335,5.99613229 5.78215806,5.97838234 5.88770519,6.02716502 C5.99325232,6.0759477 6.06745674,6.18385176 6.08236638,6.31023079 C6.09727602,6.43660981 6.05062573,6.56226382 5.95998824,6.63986015 L5.22282867,7.2878849 Z" id="路径"></path>
                        <path d="M10,9.38012512 C9.99081624,9.47331756 9.95252737,9.55976917 9.89199869,9.62397896 L8.4117453,10.9257282 C8.27227545,11.0465411 8.07246033,11.0168386 7.96544573,10.8593856 C7.85843113,10.7019326 7.88474131,10.4763535 8.02421116,10.3555405 L8.76116134,9.71721719 L4.31758498,9.71721719 C4.14217697,9.71717606 4,9.55663357 4,9.3586086 C4,9.16058362 4.14217697,9.00004113 4.31758498,9 L9.76493831,9 L9.81893898,9.02151651 L9.86658661,9.05737737 C9.88506012,9.07202602 9.90209777,9.08885619 9.91741076,9.10758259 C9.92344882,9.12033342 9.92875396,9.13350962 9.93329331,9.14702953 C9.95709828,9.18775016 9.97131103,9.23465188 9.97458793,9.28330079 C9.98569559,9.30716588 9.99422723,9.33244912 10,9.3586086 L10,9.38012512 Z" id="路径"></path>
                    </g>
                </g>
            </g>
        </g>
    </g>
</svg>

<svg width="14" height="14"><path d="M11.714 14h-9.5C1 14 0 12.88 0 11.52V2.48C0 1.12 1 0 2.214 0h1.857c.572 0 .858.72 1.143 1.52.072.24.215.56.357.8.072.08.143.08.215.08h6C13 2.4 14 3.52 14 4.88v6.72c-.071 1.28-1.071 2.4-2.286 2.4zM2.086 1.167c-.66 0-1.173.559-1.173 1.278v9.11c0 .719.513 1.278 1.173 1.278h9.828c.66 0 1.173-.559 1.173-1.278V4.842c0-.719-.513-1.278-1.173-1.278h-6.38c-.587 0-1.394-1.678-1.614-2.238-.073-.08-.147-.16-.293-.16h-1.54z"/><path d="M5.223 7.288H9.68c.176 0 .319.16.319.356C10 7.84 9.857 8 9.68 8H4.295a.292.292 0 01-.13-.032l-.03-.021a.33.33 0 01-.076-.072.347.347 0 01-.016-.039.307.307 0 01-.041-.178v-.021a.41.41 0 01.108-.242l1.462-1.321a.293.293 0 01.317-.047c.105.049.18.157.194.283a.377.377 0 01-.122.33l-.737.648zM10 9.38a.415.415 0 01-.108.244l-1.48 1.302c-.14.12-.34.09-.447-.067a.391.391 0 01.06-.503l.736-.639H4.318c-.176 0-.318-.16-.318-.358C4 9.16 4.142 9 4.318 9h5.447l.054.022.048.035a.333.333 0 01.05.05.36.36 0 01.016.04c.024.04.038.088.042.136.01.024.02.05.025.076v.021z"/></svg>
